X:1
T:We Shall Shine as the Stars
T:Judson Wheeler Van DeVenter, 1899
T:We Shall Shine as the Stars
T:Public Domain
T:Public Domain
C:Judson Wheeler Van DeVenter, 1899
Z:Public Domain
%%score 1 ( 2 3 )
L:1/8
M:6/4
K:Bb
V:1 treble 
V:2 bass 
V:3 bass 
V:1
 [B,D][CE] | [DF]3 [EG] [DF]2 [B,D]2 [CE]2 [DF]2 | [EG]6 [DF]4 [DF]2 | %3
w: 1.~We may|tar- ry a- while here as|strang- ers, Un-|
w: 2.~We may|nev- er be rich in earth’s|trea- sures, Nor|
w: 3.~We may|live in a tent or a|cot- tage, And|
 [DF]3 [EG] [DF]2 [CE]2 [DF]2 [CE]2 | [B,D]6- [B,D]4 [B,D][CE] | %5
w: no- ticed by those who pass|by; * But the|
w: rise on the lad- der of|fame; * But the|
w: die in se- clu- sion a-|lone; * But the|
 [DF]3 [EG] [DF]2 [B,D]2 [CE]2 [DF]2 | [EG]6 [DF]4 [DB]2 | [CA]3 [CB] [CA]2 [B,G]2 [B,D]2 [B,=E]2 | %8
w: Sav- ior will crown us in|glo- ry, To|shine as the stars in the|
w: saints will at last be re-|ward- ed, Made|rich in Im- man- u- el’s|
w: Fa- ther who se- eth in|se- cret, Re-|mem- bers each one of His|
 [A,F]6- [A,F]4 ||"^Refrain" [Ge][Ge] | [Fd]3 [Fd] [Fd]2 [DB]2 [Ec]2 [Fd]2 | [Ge]6 [Fd]4 [Fd]2 | %12
w: sky. *||||
w: name. *|We shall|shine as the stars of the|morn- ing, With|
w: own. *||||
 [=Ed]3 [Ec] [EB]2 [EG]2 [EA]2 [EB]2 | [Ec]6- [Ec]4 [DF][DB] | [Fd]3 [Fd] [Fd]2 [DB]2 [Ec]2 [Fd]2 | %15
w: |||
w: Je- sus the Cru- ci- fied|One; * We shall|rise to be like Him for-|
w: |||
 [_Af]6 [Ge]4 [Ge]2 | [Fd]3 [Fd] [Fd]2 [Ec]2 [DB]2 [Ec]2 | [DB]6- [DB]4 |] %18
w: |||
w: ev- er, E-|tern- al- ly shine as the|sun. *|
w: |||
V:2
 [B,,F,][B,,F,] | [B,,B,]3 [B,,B,] [B,,B,]2 [B,,F,]2 [B,,F,]2 [B,,B,]2 | %2
 [B,,B,]6 [B,,B,]4 [B,,B,]2 | [B,,B,]3 [B,,B,] [B,,B,]2 [F,A,]2 [F,A,]2 [F,A,]2 | %4
 [B,,F,B,]6- [B,,F,B,]4 [B,,F,][B,,F,] | [B,,B,]3 [B,,B,] [B,,B,]2 [B,,F,]2 [B,,F,]2 [B,,B,]2 | %6
 [B,,B,]6 [B,,B,]4 [B,,F,]2 | [C,F,]3 [C,G,] [C,F,]2 [C,=E,]2 [C,F,]2 [C,G,]2 | F,6- F,4 || %9
 [F,A,][F,A,] | [B,,B,]3 [B,,B,] [B,,B,]2 [B,,F,]2 [B,,F,]2 [B,,B,]2 | [E,B,]6 [B,,B,]4 [B,,B,]2 | %12
 [C,G,]3 [C,G,] [C,G,]2 [C,B,]2 [C,B,]2 [C,B,]2 | [F,A,]6- [F,A,]4 [B,,B,][B,,B,] | %14
 [B,,B,]3 [B,,B,] [B,,B,]2 [B,,B,]2 [B,,B,]2 [B,,B,]2 | [D,B,]6 [D,B,]4 [E,B,]2 | %16
 [F,B,]3 [F,B,] [F,B,]2 [F,A,]2 [F,B,]2 [F,A,]2 | [B,,F,B,]6- [B,,F,B,]4 |] %18
V:3
 x2 | x12 | x12 | x12 | x12 | x12 | x12 | x12 | F,6- F,4 || x2 | x12 | x12 | x12 | x12 | x12 | %15
 x12 | x12 | x10 |] %18

